assets/images/svg/logo.svg

<svg width="251" height="320" viewBox="0 0 251 320" fill="none" xmlns="http://www.w3.org/2000/svg">
<path fill-rule="evenodd" clip-rule="evenodd" d="M172.603 11.6286C183.847 27.2916 188.469 48.7306 186.083 74.1566C183.633 100.268 173.709 121.015 157.029 134.896C148.964 141.608 132.803 149.469 121 152.421C106.745 155.987 95.791 156.994 71.25 156.997L49 157V210V263H24.5H0V258.523V254.045L18.25 253.773L36.5 253.5L36.759 200.75L37.018 148H55.835C86.833 148 104.807 145.301 122.294 138.021C142.731 129.513 159.546 112.591 167.193 92.8336C173.185 77.3526 175.84 56.8706 174.098 39.5626C172.743 26.0986 170.78 18.4906 166.213 8.99963C164.228 4.87463 162.409 1.04963 162.17 0.499631C161.12 -1.92437 168.611 6.06663 172.603 11.6286ZM92.715 15.1556C96.683 16.5956 101.834 19.1756 104.162 20.8876C106.489 22.5986 108.193 23.9996 107.947 23.9996C107.701 23.9996 103.973 23.3246 99.662 22.4996C94.215 21.4566 85.293 20.9996 70.412 20.9996H49V62.9996V105H43H37V58.4216V11.8436L61.25 12.1896C84.462 12.5206 85.809 12.6476 92.715 15.1556ZM186.984 19.7346C193.252 26.7236 200.181 40.6466 202.542 50.9996C205.017 61.8496 205.53 82.2416 203.637 94.4996C201.757 106.674 199.107 114.965 193.728 125.5C187.752 137.204 173.877 150.843 161.438 157.24C142.796 166.826 125.889 169.985 93.184 169.994C79.726 169.998 70.101 170.411 68.934 171.035C67.06 172.038 67 173.683 67 224.035V276H43H19V272V268H37H55V215V162H78.401C104.241 162 117.406 160.416 132.5 155.49C161.374 146.066 181.644 124.853 188.868 96.4986C196.125 68.0166 193.265 37.1066 181.576 17.6946C177.3 10.5936 179.546 11.4416 186.984 19.7346ZM99.5 27.0366C108.656 28.3426 115.244 30.5596 116.65 32.8106C117.731 34.5426 116.697 34.6006 92.39 34.1806L67 33.7426V69.3706V105H61H55V65.4996V25.9996L73.75 26.0196C84.063 26.0306 95.65 26.4886 99.5 27.0366ZM213.076 49.4886C218.21 59.9376 220.864 70.7656 221.642 84.4336C224.014 126.073 207.718 158.438 176.673 173.745C158.213 182.847 140.018 186 105.949 186H84V239V292H60H36V287V282H54H72V229.123V176.246L99.25 175.722C128.808 175.153 137.973 173.798 154.476 167.558C192.117 153.324 211.435 120.654 209.727 74.1216C209.117 57.5146 207.05 47.9696 201.601 36.6066L198.193 29.4996L203.666 35.4886C206.752 38.8646 210.857 44.9726 213.076 49.4886ZM104.151 41.9996H119V46.4996V50.9996H103.582C95.102 50.9996 87.452 51.2726 86.582 51.6066C85.199 52.1376 85 55.2876 85 76.6316C85 104.073 85.687 101.707 77.25 103.326L74 103.95V72.3276V40.7066L81.651 41.3526C85.859 41.7086 95.984 41.9996 104.151 41.9996ZM220.566 51.2496C230.953 64.9566 234.991 77.8636 235.728 99.7116C236.33 117.554 235.125 127.679 230.873 140.5C220.885 170.617 199.204 188.602 163.81 196.131C155.206 197.961 148.95 198.421 126 198.912L98.5 199.5L98.241 252.25L97.982 305H73.991H50V301.022V297.044L68.75 296.772L87.5 296.5L87.759 243.75L88.018 191L94.259 190.957C115.964 190.809 145.223 188.898 153 187.121C174.589 182.19 188.21 175.027 201.529 161.601C208.988 154.083 211.384 150.848 215.307 143C217.919 137.775 221.251 129 222.713 123.5C225.163 114.281 225.372 111.938 225.389 93.4996C225.412 69.7026 223.941 62.7976 215.217 45.7496C215.006 45.3376 215.058 44.9996 215.332 44.9996C215.606 44.9996 217.962 47.8126 220.566 51.2496ZM118.625 60.1246C118.281 61.8436 118 63.8686 118 64.6246C118 65.6766 116.121 65.9996 110 65.9996H102V78.8446C102 92.9256 101.971 92.9996 95.25 96.4046L92 98.0506V77.5256V56.9996H105.625H119.25L118.625 60.1246ZM242.414 76.9666C244.328 80.6096 246.93 87.1696 248.197 91.5446C250.267 98.6966 250.5 101.57 250.5 120C250.5 144.191 249.137 151.055 241.067 167.5C229.695 190.673 209.654 204.791 178.5 211.576C172.473 212.889 163.594 213.464 142.5 213.909L114.5 214.5L114.241 267.25L113.982 320H89.491H65V315.5V311H84.5H104V258.149V205.299L128.75 204.716C161.022 203.956 175.409 201.435 192.622 193.522C212.116 184.561 227.484 168.416 234.863 149.144C240.276 135.01 241.489 127.337 241.448 107.5C241.409 88.2796 240.406 81.8556 235.534 69.6026L233.107 63.4996L236.02 66.9216C237.622 68.8046 240.499 73.3246 242.414 76.9666Z" fill="#FEFEFE"/>
</svg>

<svg xmlns="http://www.w3.org/2000/svg" width="251" height="320" fill="none">
    <path fill="#FEFEFE" fill-rule="evenodd"
        d="M172.6 11.63c11.25 15.66 15.87 37.1 13.48 62.53-2.45 26.1-12.37 46.86-29.05 60.74-8.07 6.7-24.23 14.57-36.03 17.52C106.75 156 95.8 157 71.25 157H49v106H0v-8.95l18.25-.28 18.25-.27.26-52.75.26-52.75h18.81c31 0 48.98-2.7 66.46-9.98 20.44-8.5 37.26-25.43 44.9-45.19 6-15.48 8.65-35.96 6.9-53.27-1.35-13.46-3.31-21.07-7.88-30.56-1.98-4.13-3.8-7.95-4.04-8.5-1.05-2.42 6.44 5.57 10.43 11.13Zm-79.88 3.53c3.96 1.44 9.11 4.02 11.44 5.73 2.33 1.7 4.03 3.11 3.79 3.11-.25 0-3.98-.68-8.29-1.5C94.22 21.46 85.3 21 70.41 21H49v84H37V11.84l24.25.35c23.21.33 24.56.46 31.47 2.97Zm94.26 4.57c6.27 7 13.2 20.92 15.56 31.27 2.48 10.85 2.99 31.24 1.1 43.5-1.88 12.17-4.53 20.47-9.91 31-5.98 11.7-19.85 25.34-32.3 31.74-18.63 9.59-35.54 12.75-68.25 12.75-13.45 0-23.08.42-24.25 1.04-1.87 1-1.93 2.65-1.93 53V276H19v-8h36V162h23.4c25.84 0 39-1.58 54.1-6.51 28.87-9.42 49.14-30.64 56.37-59 7.25-28.47 4.4-59.38-7.3-78.8-4.27-7.1-2.02-6.25 5.41 2.04Zm-87.48 7.3c9.16 1.31 15.74 3.53 17.15 5.78 1.08 1.73.05 1.8-24.26 1.37L67 33.74V105H55V26l18.75.02c10.31.01 21.9.47 25.75 1.02ZM213.08 49.5c5.13 10.45 7.78 21.28 8.56 34.94 2.37 41.64-13.92 74-44.97 89.31-18.46 9.1-36.65 12.26-70.72 12.26H84v106H36v-10h36V176.25l27.25-.53c29.56-.57 38.72-1.92 55.23-8.16 37.64-14.24 56.96-46.9 55.25-93.44-.61-16.6-2.68-26.15-8.13-37.51l-3.4-7.11 5.47 5.99a70.2 70.2 0 0 1 9.4 14ZM104.15 42H119v9h-15.42c-8.48 0-16.13.27-17 .6C85.2 52.15 85 55.3 85 76.64c0 27.44.69 25.08-7.75 26.7l-3.25.62V40.71l7.65.64c4.2.36 14.33.65 22.5.65Zm116.42 9.25c10.38 13.7 14.42 26.61 15.16 48.46.6 17.84-.6 27.97-4.86 40.79-9.99 30.12-31.67 48.1-67.06 55.63-8.6 1.83-14.86 2.3-37.81 2.78l-27.5.59-.26 52.75-.26 52.75H50v-7.96l18.75-.27 18.75-.27.26-52.75.26-52.75 6.24-.04c21.7-.15 50.96-2.06 58.74-3.84 21.59-4.93 35.21-12.1 48.53-25.52 7.46-7.52 9.85-10.75 13.78-18.6 2.6-5.22 5.94-14 7.4-19.5 2.45-9.22 2.66-11.56 2.68-30 .02-23.8-1.45-30.7-10.17-47.75-.21-.41-.16-.75.11-.75.28 0 2.63 2.81 5.24 6.25Zm-101.94 8.87a32.18 32.18 0 0 0-.63 4.5c0 1.06-1.88 1.38-8 1.38h-8v12.84c0 14.09-.03 14.16-6.75 17.56L92 98.05V57h27.25l-.63 3.12ZM242.4 76.97a94.22 94.22 0 0 1 5.79 14.57c2.07 7.16 2.3 10.03 2.3 28.46 0 24.2-1.36 31.06-9.43 47.5-11.38 23.17-31.42 37.3-62.57 44.08-6.03 1.3-14.9 1.88-36 2.33l-28 .59-.26 52.75-.26 52.75H65v-9h39V205.3l24.75-.58c32.27-.76 46.66-3.28 63.87-11.2 19.5-8.96 34.86-25.1 42.24-44.38 5.42-14.13 6.63-21.8 6.59-41.64-.04-19.22-1.04-25.64-5.92-37.9l-2.42-6.1 2.91 3.42c1.6 1.88 4.48 6.4 6.4 10.05Z"
        clip-rule="evenodd" />
</svg>
